result/img/logo.svg

<svg width="61" height="61" viewBox="0 0 61 61" fill="none" xmlns="http://www.w3.org/2000/svg">
<g clip-path="url(#clip0_66156_91)">
<mask id="mask0_66156_91" style="mask-type:luminance" maskUnits="userSpaceOnUse" x="0" y="0" width="61" height="61">
<path d="M54.9 0H6.1C2.73106 0 0 2.73106 0 6.1V54.9C0 58.2689 2.73106 61 6.1 61H54.9C58.2689 61 61 58.2689 61 54.9V6.1C61 2.73106 58.2689 0 54.9 0Z" fill="white"/>
</mask>
<g mask="url(#mask0_66156_91)">
<path d="M54.9 0H6.1C2.73106 0 0 2.73106 0 6.1V54.9C0 58.2689 2.73106 61 6.1 61H54.9C58.2689 61 61 58.2689 61 54.9V6.1C61 2.73106 58.2689 0 54.9 0Z" fill="#0E93B9"/>
<path fill-rule="evenodd" clip-rule="evenodd" d="M17.401 45.3331C18.0541 44.9827 18.6092 45.5429 18.5573 46.0836C18.4986 46.6224 18.1001 46.8683 17.6981 46.8752C17.1547 46.8857 16.748 46.4413 16.7407 45.8902C16.7487 45.1513 17.2895 44.7139 17.89 44.6973C18.8929 44.7461 19.2809 45.6283 19.2521 46.2424C19.2176 47.0088 18.465 47.7133 17.7 47.7245L17.7105 47.4459C18.3708 47.3717 19.0002 46.9156 19.0104 46.1954C19.0022 45.6137 18.6848 44.9585 17.8838 44.9203C17.428 44.8917 16.9102 45.3213 16.9016 45.8735C16.9001 46.282 17.178 46.7023 17.6919 46.7196C18.0673 46.7223 18.4055 46.4449 18.4206 46.0555C18.4579 45.5881 18.0742 45.1237 17.401 45.3331Z" fill="white"/>
<path fill-rule="evenodd" clip-rule="evenodd" d="M43.5875 45.327C42.9344 44.9769 42.3791 45.5369 42.4311 46.0777C42.4897 46.6166 42.8882 46.8622 43.2902 46.8693C43.8337 46.8799 44.2404 46.4354 44.2477 45.8844C44.2396 45.1455 43.6989 44.7081 43.0983 44.6914C42.0954 44.7402 41.7075 45.6225 41.7364 46.2365C41.7709 47.0029 42.5235 47.7074 43.2884 47.7186L43.2778 47.4401C42.6176 47.3658 41.9881 46.9098 41.9779 46.1896C41.9863 45.6078 42.3035 44.9525 43.1046 44.9145C43.5603 44.8856 44.0781 45.3154 44.0869 45.8677C44.0883 46.2762 43.8104 46.6965 43.2965 46.7136C42.9212 46.7164 42.5828 46.4391 42.5678 46.0497C42.5306 45.5822 42.9143 45.1176 43.5875 45.327Z" fill="white"/>
<path fill-rule="evenodd" clip-rule="evenodd" d="M17.7003 47.7241C16.237 47.754 15.5438 46.5147 15.6077 45.6778C15.6891 44.2778 16.9508 43.2679 18.227 43.3063C20.4873 43.4029 21.3169 45.0292 21.1874 46.4734C21.0544 48.1515 19.4741 49.6723 17.7616 49.6963C15.1058 49.7363 13.4173 47.5891 13.4492 45.3716C13.5176 43.4365 15.0825 41.1254 18.2477 41.0469L18.2352 41.8592C15.5505 41.9336 14.439 43.7012 14.2763 45.4131C14.2117 46.8494 15.2621 48.8874 17.6812 48.9956C19.3323 48.9791 20.4541 47.8132 20.6003 46.4901C20.7199 45.2355 20.1203 43.8984 18.305 43.7439C17.27 43.7248 16.1441 44.3919 15.994 45.6463C15.9384 46.4228 16.5654 47.4285 17.7107 47.4456C17.7072 47.5385 17.7038 47.6314 17.7003 47.7241Z" fill="white"/>
<path fill-rule="evenodd" clip-rule="evenodd" d="M43.2882 47.7195C44.7514 47.7491 45.4446 46.51 45.3807 45.6729C45.2994 44.273 44.0377 43.263 42.7614 43.3016C40.5011 43.398 39.6715 45.0243 39.8011 46.4688C39.934 48.1467 41.5143 49.6674 43.2268 49.6916C45.8826 49.7314 47.571 47.5844 47.5393 45.3667C47.471 43.4318 45.9059 41.1205 42.7407 41.042L42.7533 41.8545C45.4379 41.9289 46.5495 43.6965 46.7122 45.4082C46.7766 46.8445 45.7264 48.8827 43.3073 48.9909C41.6561 48.9742 40.5343 47.8083 40.3881 46.4852C40.2685 45.2309 40.8682 43.8937 42.6835 43.739C43.7183 43.7199 44.8443 44.387 44.9944 45.6414C45.0501 46.4179 44.423 47.4236 43.2777 47.4407C43.2811 47.5336 43.2848 47.6265 43.2882 47.7195Z" fill="white"/>
<path fill-rule="evenodd" clip-rule="evenodd" d="M18.2475 41.0467C22.1099 41.2966 23.6379 44.5263 23.5273 46.8124C23.2673 49.3323 21.3352 52.4978 17.0856 52.5346C12.3968 52.5027 9.96384 48.5057 9.96384 45.2788C9.93889 42.7122 10.9105 38.0512 17.5628 37.9592L30.5067 37.9229L30.4984 39.1963L17.5239 39.188C13.4865 39.093 11.3694 42.0025 11.3217 45.2514C11.4803 49.4124 14.4864 51.7111 17.3103 51.5846C21.507 51.2857 22.6247 48.3382 22.799 46.715C22.9165 44.5666 21.3787 41.9879 18.235 41.859L18.2475 41.0467Z" fill="white"/>
<path fill-rule="evenodd" clip-rule="evenodd" d="M42.7406 41.0416C38.8781 41.2917 37.35 44.5214 37.4607 46.8073C37.7207 49.3274 39.6528 52.4929 43.9025 52.5297C48.5911 52.4976 51.0242 48.5009 51.0242 45.2738C51.0492 42.7073 50.0775 38.0463 43.4252 37.9542L30.4814 37.918L30.4896 39.1914L43.4643 39.1831C47.5015 39.0879 49.6186 41.9976 49.6663 45.2465C49.5077 49.4075 46.5017 51.7062 43.6778 51.5795C39.481 51.2808 38.3633 48.3331 38.1892 46.7099C38.0715 44.5617 39.6095 41.9828 42.753 41.8541L42.7406 41.0416Z" fill="white"/>
<path fill-rule="evenodd" clip-rule="evenodd" d="M22.8433 48.5956C23.7929 45.3181 23.0499 42.762 19.3203 41.2061C23.3614 42.2605 26.2351 42.9769 30.4913 42.8927V42.8935C34.7375 42.9751 37.6088 42.2593 41.6442 41.2065C37.9146 42.7624 37.1716 45.3185 38.1212 48.5958C37.3961 48.4213 36.8367 47.7497 36.5242 47.0263C36.0002 48.1265 35.0379 48.6361 34.3364 48.6178C33.4378 48.5958 32.8429 48.0476 32.4321 47.1904C32.1406 48.0454 31.2646 48.632 30.5064 48.632C29.7485 48.632 28.9987 48.045 28.555 47.1436C28.1442 48.0008 27.5267 48.5954 26.6282 48.6174C25.9267 48.6357 25.0105 48.07 24.4865 46.9699C24.174 47.6934 23.5684 48.4209 22.8433 48.5956ZM37.7967 44.8506C38.0238 43.9576 38.5283 43.2168 39.1625 42.5474C38.5767 42.6095 38.1846 42.8118 37.9 43.204C37.523 43.7569 37.5671 44.4006 37.7967 44.8506ZM37.729 47.8695C37.4526 46.997 37.4232 46.0686 37.7105 45.0686C37.2461 45.2979 36.9701 45.9051 36.9756 46.4228C36.975 46.9547 37.2509 47.5029 37.729 47.8695ZM32.6666 46.6562C32.9661 47.4069 33.3315 48.1651 34.3701 48.2995C35.3191 48.3481 36.1824 47.2821 36.5118 46.1517C36.8036 45.1168 36.8927 44.1314 36.8914 43.047L36.5529 43.084C36.5254 44.1831 36.4065 45.1818 36.1479 46.0277C35.9116 46.8347 35.1263 47.9102 34.3616 47.8546C33.4142 47.7629 33.1149 46.7589 32.8815 45.8953C32.8414 46.1627 32.7701 46.4165 32.6666 46.6562ZM34.7072 43.4246C34.0588 43.3724 33.461 44.2184 33.3726 45.3142C33.2843 46.4102 33.7386 47.3412 34.3872 47.3935C35.0356 47.4457 35.6334 46.5997 35.7217 45.5037C35.8101 44.4079 35.3559 43.4769 34.7072 43.4246ZM30.5271 43.4635C31.1778 43.4635 31.7056 44.3549 31.7056 45.4543C31.7056 46.5537 31.1778 47.4451 30.5271 47.4451C29.8764 47.4451 29.3488 46.5537 29.3488 45.4543C29.3488 44.3549 29.8764 43.4635 30.5271 43.4635ZM30.5058 48.3331L30.4993 48.3329L30.4927 48.3331C29.5405 48.3123 28.886 47.3195 28.5798 46.2506C28.3338 45.4454 28.3478 44.4502 28.436 43.5377L28.7951 43.5541C28.7528 44.421 28.6987 45.3081 28.9602 46.1542C29.2061 47.07 29.7888 47.8668 30.4993 47.9055C31.229 47.8668 31.8276 47.07 32.0802 46.1542C32.3486 45.3081 32.2931 44.421 32.2498 43.5541L32.6184 43.5377C32.7091 44.4502 32.7235 45.4454 32.4708 46.2506C32.1562 47.3197 31.484 48.3126 30.5058 48.3331ZM26.3336 43.433C26.9822 43.3805 27.5798 44.2268 27.6682 45.3225C27.7567 46.4185 27.3024 47.3496 26.6538 47.4018C26.0052 47.4541 25.4076 46.6078 25.3191 45.512C25.2307 44.4163 25.6851 43.4852 26.3336 43.433ZM28.3895 46.6971C28.09 47.4478 27.7246 48.2062 26.6861 48.3404C25.737 48.389 24.8738 47.3229 24.5444 46.1926C24.2524 45.1576 24.1634 44.1723 24.1648 43.0879L24.5032 43.1251C24.5308 44.2239 24.6496 45.2229 24.9082 46.0686C25.1447 46.8756 25.9299 47.951 26.6945 47.8957C27.6418 47.8038 27.9411 46.7998 28.1745 45.9362C28.2146 46.2036 28.286 46.4573 28.3895 46.6971ZM23.3122 47.9185C23.5886 47.046 23.6182 46.1176 23.3307 45.1176C23.7951 45.3471 24.0713 45.9541 24.0658 46.472C24.0664 47.0037 23.7905 47.5519 23.3122 47.9185ZM23.2445 44.8996C23.0174 44.0066 22.5131 43.2658 21.8787 42.5967C22.4647 42.6585 22.8566 42.8608 23.1412 43.253C23.5182 43.8059 23.4743 44.4498 23.2445 44.8996Z" fill="white"/>
<path fill-rule="evenodd" clip-rule="evenodd" d="M16.4329 38.219L16.4282 37.4693C16.4476 37.205 16.2726 37.0362 16.0513 36.8345L15.3305 36.074C15.1367 35.8876 15.0724 35.7133 15.0684 35.4333L15.0692 32.9529C15.0817 32.6141 15.2091 32.3506 15.7321 32.3506H30.5124L30.5022 33.4014L16.4083 33.4291C16.1931 33.4329 16.137 33.5185 16.1367 33.7357L16.1357 34.8418C16.1343 34.9929 16.1678 35.0588 16.4314 35.0539L30.503 35.0527L30.4979 35.7387L16.6942 35.7404C16.4629 35.741 16.3883 35.8593 16.5268 35.9882L17.2658 36.6602L30.4987 36.6667V37.1153L17.8167 37.0923C17.6015 37.0984 17.4831 37.1257 17.4861 37.3369L17.4927 37.8196L17.8233 38.0907L16.4329 38.219Z" fill="white"/>
<path fill-rule="evenodd" clip-rule="evenodd" d="M44.5864 38.219L44.5911 37.4693C44.5716 37.205 44.7467 37.0362 44.9681 36.8345L45.6887 36.074C45.8825 35.8876 45.947 35.7133 45.951 35.4333L45.95 32.9529C45.9376 32.6141 45.8101 32.3506 45.2871 32.3506H30.5068L30.5172 33.4014L44.6108 33.4291C44.8262 33.4329 44.8823 33.5185 44.8825 33.7357L44.8835 34.8418C44.8849 34.9929 44.8514 35.0588 44.5879 35.0539L30.5164 35.0527L30.5213 35.7387L44.325 35.7404C44.5564 35.741 44.631 35.8593 44.4925 35.9882L43.7534 36.6602L30.5205 36.6667V37.1153L43.2026 37.0923C43.4177 37.0984 43.5362 37.1257 43.5332 37.3369L43.5265 37.8196L43.1959 38.0907L44.5864 38.219Z" fill="white"/>
<path fill-rule="evenodd" clip-rule="evenodd" d="M22.2743 49.04H38.7551L40.0922 50.772H21.4004L22.2743 49.04ZM30.5898 49.4024C30.9184 49.4024 31.185 49.6421 31.185 49.938C31.185 50.2336 30.9184 50.4735 30.5898 50.4735C30.2612 50.4735 29.9947 50.2336 29.9947 49.938C29.9947 49.6421 30.2612 49.4024 30.5898 49.4024ZM31.7779 49.4874H32.782C32.7293 49.5819 32.7004 49.6842 32.7004 49.7914C32.7004 49.9469 32.7612 50.0927 32.8674 50.2184H31.7456C31.8383 50.102 31.8906 49.9705 31.8906 49.831C31.8906 49.7088 31.8503 49.5925 31.7779 49.4874ZM33.9522 49.4298C34.2807 49.4298 34.5471 49.6698 34.5471 49.9656C34.5471 50.2613 34.2807 50.501 33.9522 50.501C33.6234 50.501 33.357 50.2613 33.357 49.9656C33.357 49.6698 33.6234 49.4298 33.9522 49.4298ZM35.1272 49.4874H36.0876C36.031 49.5856 35.9999 49.6925 35.9999 49.8046C35.9999 49.9546 36.0556 50.0957 36.1534 50.2184H35.0418C35.148 50.0927 35.2088 49.9469 35.2088 49.7914C35.2088 49.6842 35.1799 49.5819 35.1272 49.4874ZM37.1581 49.4166C37.4867 49.4166 37.7531 49.6565 37.7531 49.9524C37.7531 50.248 37.4867 50.488 37.1581 50.488C36.8295 50.488 36.563 50.248 36.563 49.9524C36.563 49.6565 36.8295 49.4166 37.1581 49.4166ZM23.879 49.3705C24.2076 49.3705 24.474 49.6104 24.474 49.906C24.474 50.2019 24.2076 50.4416 23.879 50.4416C23.5502 50.4416 23.2839 50.2019 23.2839 49.906C23.2839 49.6104 23.5502 49.3705 23.879 49.3705ZM24.9504 49.4874H25.9443C25.881 49.589 25.8461 49.7007 25.8461 49.8178C25.8461 49.9626 25.8993 50.0988 25.9935 50.2184H24.9394C25.0146 50.1053 25.0571 49.9784 25.0571 49.8444C25.0571 49.7169 25.0189 49.596 24.9504 49.4874ZM27.1134 49.4306C27.4422 49.4306 27.7086 49.6706 27.7086 49.9664C27.7086 50.2621 27.4422 50.502 27.1134 50.502C26.7849 50.502 26.5185 50.2621 26.5185 49.9664C26.5185 49.6706 26.7849 49.4306 27.1134 49.4306ZM28.2895 49.4874H29.3178C29.2454 49.5925 29.2049 49.7088 29.2049 49.831C29.2049 49.9705 29.2572 50.102 29.3499 50.2184H28.2403C28.3343 50.0988 28.3877 49.9626 28.3877 49.8178C28.3877 49.7007 28.3528 49.589 28.2895 49.4874Z" fill="white"/>
<path d="M19.9959 51.8984H18.9199V64.2164H19.9959V51.8984Z" fill="white"/>
<path d="M42.1141 51.8906H41.0381V64.2086H42.1141V51.8906Z" fill="white"/>
<path fill-rule="evenodd" clip-rule="evenodd" d="M37.4533 64.2024L37.4492 53.3716C37.4565 52.467 37.8526 51.8767 38.7739 51.8486C39.6863 51.8814 40.1226 52.4228 40.1521 53.3757L40.1479 64.205L39.535 64.2113L39.5285 53.6841C39.5088 53.2557 39.2371 52.8604 38.7264 52.8324C38.0936 52.772 37.9079 53.3198 37.8949 53.7677L37.8955 64.203L37.4533 64.2024Z" fill="white"/>
<path fill-rule="evenodd" clip-rule="evenodd" d="M23.5753 64.1877L23.5794 53.3569C23.5721 52.4523 23.176 51.862 22.2547 51.834C21.3423 51.8667 20.9059 52.4082 20.8765 53.361L20.8807 64.1904L21.4936 64.1967L21.5001 53.6695C21.5198 53.2413 21.7915 52.8458 22.3022 52.8177C22.935 52.7573 23.1207 53.3051 23.1337 53.753L23.1331 64.1883L23.5753 64.1877Z" fill="white"/>
<path fill-rule="evenodd" clip-rule="evenodd" d="M27.7319 64.1797L27.7362 53.3489C27.7283 52.4443 27.3106 51.8542 26.3389 51.8262C25.3765 51.8587 24.9164 52.4004 24.8853 53.3532L24.8897 64.1825L25.5361 64.1888L25.543 53.6617C25.564 53.2332 25.8503 52.838 26.3891 52.8099C27.0564 52.7495 27.2525 53.2973 27.2661 53.7452L27.2655 64.1805L27.7319 64.1797Z" fill="white"/>
<path fill-rule="evenodd" clip-rule="evenodd" d="M33.3109 64.1973L33.3066 53.3665C33.3144 52.4619 33.7322 51.8716 34.7039 51.8438C35.6663 51.8763 36.1265 52.4178 36.1576 53.3706L36.1531 64.2001L35.5067 64.2062L35.4998 53.679C35.4789 53.2508 35.1926 52.8553 34.6537 52.8275C33.9864 52.7671 33.7904 53.3147 33.7767 53.7626L33.7774 64.1979L33.3109 64.1973Z" fill="white"/>
<path fill-rule="evenodd" clip-rule="evenodd" d="M28.9701 64.2431L28.9658 53.4124C28.9733 52.5409 29.3615 51.9616 30.2588 51.8951H30.2604C30.4432 51.8817 30.611 51.887 30.7944 51.8931C31.6637 51.9732 32.0634 52.5628 32.0709 53.4217L32.0667 64.2523L31.6002 64.2531L31.6008 53.8178C31.587 53.3699 31.3798 52.8544 30.7186 52.8607L30.2588 52.8699C29.6307 52.889 29.4493 53.3731 29.4359 53.8087L29.4365 64.2439L28.9701 64.2431Z" fill="white"/>
<path d="M29.4917 10.7764H39.001C41.2035 10.7764 43.1569 11.187 44.8615 12.0082C46.5662 12.8295 47.8877 13.9945 48.8261 15.5033C49.7646 17.0121 50.2337 18.7788 50.2337 20.8033C50.2337 22.8277 49.7646 24.5943 48.8261 26.1032C47.8877 27.612 46.5662 28.7771 44.8615 29.5983C43.1569 30.4196 41.2035 30.8301 39.001 30.8301H29.4917V10.7764ZM38.771 26.3037C40.4949 26.3037 41.8737 25.8167 42.908 24.8426C43.9613 23.8686 44.4881 22.5221 44.4881 20.8033C44.4881 19.0843 43.9613 17.7379 42.908 16.7638C41.8737 15.7898 40.4949 15.3028 38.771 15.3028H35.18V26.3037H38.771Z" fill="white"/>
<path d="M23.0389 18.8205C24.704 19.1653 25.9768 19.8548 26.8573 20.8889C27.757 21.9042 28.2068 23.1394 28.2068 24.5951C28.2068 25.7826 27.8815 26.8838 27.2306 27.8991C26.599 28.9141 25.6228 29.7376 24.3022 30.3698C23.0005 30.9826 21.3831 31.289 19.45 31.289C18.0336 31.289 16.6267 31.1166 15.2295 30.772C13.8514 30.4271 12.6551 29.9387 11.6406 29.3067L13.7078 25.026C14.4926 25.5624 15.373 25.9741 16.3492 26.2614C17.3445 26.5487 18.3207 26.6923 19.2777 26.6923C20.2539 26.6923 21.0291 26.5103 21.6033 26.1465C22.1776 25.7826 22.4647 25.2655 22.4647 24.5951C22.4647 23.2928 21.4407 22.6415 19.3925 22.6415H17.0096V19.0504L20.5985 15.1719H12.6742V10.7764H27.2019V14.3388L23.0389 18.8205Z" fill="white"/>
</g>
</g>
<defs>
<clipPath id="clip0_66156_91">
<rect width="61" height="61" fill="white"/>
</clipPath>
</defs>
</svg>

<svg xmlns="http://www.w3.org/2000/svg" width="61" height="61" fill="none" viewBox="0 0 61 61"><g clip-path="url(#a)"><mask id="b" width="61" height="61" x="0" y="0" maskUnits="userSpaceOnUse" style="mask-type:luminance"><path fill="#fff" d="M54.9 0H6.1A6.1 6.1 0 0 0 0 6.1v48.8A6.1 6.1 0 0 0 6.1 61h48.8a6.1 6.1 0 0 0 6.1-6.1V6.1A6.1 6.1 0 0 0 54.9 0"/></mask><g mask="url(#b)"><path fill="#0e93b9" d="M54.9 0H6.1A6.1 6.1 0 0 0 0 6.1v48.8A6.1 6.1 0 0 0 6.1 61h48.8a6.1 6.1 0 0 0 6.1-6.1V6.1A6.1 6.1 0 0 0 54.9 0"/><path fill="#fff" fill-rule="evenodd" d="M17.401 45.333c.653-.35 1.208.21 1.156.75-.058.54-.457.785-.859.792-.543.01-.95-.434-.957-.985.008-.739.549-1.176 1.149-1.193 1.003.05 1.39.931 1.362 1.545-.034.767-.787 1.471-1.552 1.483l.01-.28c.66-.073 1.29-.53 1.3-1.25-.008-.581-.325-1.236-1.126-1.275-.456-.028-.974.401-.982.953-.002.409.276.83.79.847.375.002.713-.275.729-.664.037-.468-.347-.932-1.02-.723m26.187-.006c-.654-.35-1.209.21-1.157.75.059.54.457.785.86.792.543.01.95-.434.957-.985-.008-.739-.55-1.176-1.15-1.193-1.003.05-1.39.931-1.362 1.545.035.767.788 1.471 1.552 1.483l-.01-.279c-.66-.074-1.29-.53-1.3-1.25.008-.582.325-1.237 1.127-1.276.455-.028.973.401.982.954.001.408-.277.828-.79.846-.376.002-.714-.275-.73-.664-.036-.468.347-.932 1.02-.723" clip-rule="evenodd"/><path fill="#fff" fill-rule="evenodd" d="M17.7 47.724c-1.463.03-2.156-1.21-2.092-2.046.081-1.4 1.343-2.41 2.619-2.372 2.26.097 3.09 1.723 2.96 3.167-.133 1.678-1.713 3.2-3.425 3.223-2.656.04-4.345-2.107-4.313-4.324.069-1.935 1.633-4.247 4.799-4.325l-.013.812c-2.684.075-3.796 1.842-3.959 3.554-.064 1.436.986 3.474 3.405 3.583 1.651-.017 2.773-1.183 2.92-2.506.119-1.255-.48-2.592-2.296-2.746-1.035-.02-2.16.648-2.311 1.902-.056.777.571 1.782 1.717 1.8zm25.588-.004c1.463.03 2.157-1.21 2.093-2.047-.082-1.4-1.343-2.41-2.62-2.371-2.26.096-3.09 1.722-2.96 3.167.133 1.678 1.713 3.198 3.426 3.223 2.656.04 4.344-2.108 4.312-4.325-.068-1.935-1.633-4.246-4.798-4.325l.012.813c2.685.074 3.797 1.842 3.96 3.553.064 1.436-.987 3.475-3.406 3.583-1.65-.017-2.773-1.183-2.919-2.506-.12-1.254.48-2.591 2.296-2.746 1.034-.02 2.16.648 2.31 1.902.056.777-.571 1.783-1.716 1.8z" clip-rule="evenodd"/><path fill="#fff" fill-rule="evenodd" d="M18.248 41.047c3.862.25 5.39 3.48 5.28 5.765-.26 2.52-2.193 5.686-6.442 5.723-4.69-.032-7.122-4.03-7.122-7.256-.025-2.567.947-7.228 7.599-7.32l12.944-.036-.009 1.273-12.974-.008c-4.038-.095-6.155 2.814-6.202 6.063.158 4.161 3.164 6.46 5.988 6.334 4.197-.3 5.315-3.247 5.489-4.87.117-2.148-1.42-4.727-4.564-4.856z" clip-rule="evenodd"/><path fill="#fff" fill-rule="evenodd" d="M42.74 41.042c-3.862.25-5.39 3.48-5.28 5.765.26 2.52 2.193 5.686 6.443 5.723 4.688-.032 7.121-4.03 7.121-7.256.025-2.567-.947-7.228-7.599-7.32l-12.944-.036.009 1.273 12.974-.008c4.038-.095 6.155 2.815 6.202 6.063-.158 4.161-3.164 6.46-5.988 6.334-4.197-.3-5.315-3.247-5.489-4.87-.117-2.148 1.42-4.727 4.564-4.856z" clip-rule="evenodd"/><path fill="#fff" fill-rule="evenodd" d="M22.843 48.596c.95-3.278.207-5.834-3.523-7.39 4.041 1.054 6.915 1.77 11.171 1.687 4.246.082 7.118-.634 11.153-1.687-3.73 1.556-4.472 4.112-3.523 7.39-.725-.175-1.284-.846-1.597-1.57-.524 1.1-1.486 1.61-2.188 1.592-.898-.022-1.493-.57-1.904-1.428-.291.855-1.167 1.442-1.926 1.442s-1.507-.587-1.951-1.488c-.41.857-1.028 1.451-1.927 1.473-.701.019-1.617-.547-2.142-1.647-.312.723-.918 1.45-1.643 1.626m14.954-3.745c.227-.893.731-1.634 1.366-2.304-.586.063-.978.265-1.263.657a1.62 1.62 0 0 0-.103 1.647m-.068 3.019c-.276-.873-.306-1.801-.018-2.801-.465.229-.74.836-.735 1.354-.001.532.275 1.08.753 1.447m-5.062-1.214c.3.75.664 1.51 1.703 1.644.95.048 1.812-1.018 2.142-2.148.292-1.035.38-2.02.38-3.105l-.34.037c-.027 1.1-.145 2.098-.404 2.944-.236.807-1.022 1.882-1.786 1.827-.948-.092-1.247-1.096-1.48-1.96q-.06.402-.215.761m2.04-3.231c-.648-.053-1.246.793-1.334 1.89-.089 1.095.366 2.026 1.014 2.079.649.052 1.246-.794 1.335-1.89s-.366-2.027-1.015-2.08m-4.18.039c.65 0 1.179.89 1.179 1.99s-.528 1.991-1.179 1.991c-.65 0-1.178-.891-1.178-1.99 0-1.1.527-1.991 1.178-1.991m-.021 4.87-.007-.001h-.006c-.952-.02-1.607-1.014-1.913-2.082-.246-.806-.232-1.8-.144-2.713l.36.016c-.043.867-.097 1.754.164 2.6.246.916.829 1.713 1.54 1.752.729-.04 1.328-.836 1.58-1.752.269-.846.213-1.733.17-2.6l.368-.016c.091.912.105 1.907-.147 2.713-.315 1.069-.987 2.062-1.965 2.082m-4.172-4.901c.648-.053 1.246.794 1.334 1.89s-.366 2.027-1.014 2.079c-.649.052-1.246-.794-1.335-1.89s.366-2.027 1.015-2.079m2.056 3.264c-.3.75-.665 1.51-1.704 1.643-.949.049-1.812-1.017-2.142-2.147-.292-1.035-.38-2.02-.38-3.105l.34.037c.027 1.099.146 2.098.404 2.944.237.807 1.022 1.882 1.787 1.827.947-.092 1.246-1.096 1.48-1.96q.06.401.215.761m-5.078 1.221c.277-.872.306-1.8.019-2.8.464.23.74.836.735 1.354 0 .532-.275 1.08-.754 1.447m-.068-3.018c-.227-.893-.73-1.634-1.365-2.303.586.061.978.264 1.262.656.377.553.333 1.197.104 1.647m-6.812-6.68-.005-.75c.02-.264-.155-.433-.377-.635l-.72-.76c-.194-.186-.259-.36-.263-.64l.001-2.481c.013-.339.14-.602.663-.602h14.78l-.01 1.05-14.094.028c-.215.004-.271.09-.271.307l-.001 1.106c-.002.15.032.217.295.212l14.072-.001-.005.686-13.804.001c-.231.001-.306.12-.167.248l.739.672 13.233.007v.448l-12.682-.023c-.215.006-.334.034-.33.245l.006.483.33.27z" clip-rule="evenodd"/><path fill="#fff" fill-rule="evenodd" d="m44.586 38.219.005-.75c-.02-.264.156-.433.377-.635l.72-.76c.194-.186.259-.36.263-.64l-.001-2.481c-.012-.339-.14-.602-.663-.602h-14.78l.01 1.05 14.094.028c.215.004.271.09.272.307v1.106c.002.15-.032.217-.295.212l-14.072-.001.005.686 13.804.001c.231.001.306.12.167.248l-.739.672-13.233.007v.448l12.683-.023c.215.006.333.034.33.245l-.007.483-.33.27zM22.274 49.04h16.481l1.337 1.732H21.4zm8.316.362c.328 0 .595.24.595.536s-.267.535-.595.535c-.329 0-.595-.24-.595-.535s.266-.536.595-.536m1.188.085h1.004a.6.6 0 0 0-.082.304c0 .156.061.302.167.427h-1.121a.62.62 0 0 0 .145-.387.6.6 0 0 0-.113-.344m2.174-.057c.329 0 .595.24.595.536 0 .295-.266.535-.595.535s-.595-.24-.595-.535.266-.536.595-.536m1.175.057h.96a.63.63 0 0 0-.087.318c0 .15.056.29.153.413h-1.111a.66.66 0 0 0 .167-.427.6.6 0 0 0-.082-.304m2.031-.07c.329 0 .595.24.595.535s-.266.536-.595.536-.595-.24-.595-.536c0-.295.267-.535.595-.535M23.88 49.37c.329 0 .595.24.595.536s-.266.536-.595.536-.595-.24-.595-.536.266-.535.595-.535m1.071.117h.994a.6.6 0 0 0-.098.33c0 .146.053.282.148.401H24.94a.67.67 0 0 0 .118-.374.67.67 0 0 0-.107-.357m2.163-.056c.33 0 .596.24.596.535s-.267.536-.596.536-.594-.24-.594-.536c0-.295.266-.535.594-.535m1.177.056h1.028a.6.6 0 0 0-.113.344c0 .14.052.271.145.387h-1.11a.65.65 0 0 0 .148-.4.6.6 0 0 0-.099-.33" clip-rule="evenodd"/><path fill="#fff" d="M19.996 51.898H18.92v12.318h1.076zm22.118-.008h-1.076v12.32h1.076z"/><path fill="#fff" fill-rule="evenodd" d="m37.453 64.202-.004-10.83c.008-.905.404-1.495 1.325-1.523.912.032 1.349.574 1.378 1.527l-.004 10.829-.613.006-.006-10.527c-.02-.428-.292-.824-.803-.852-.632-.06-.818.488-.831.936v10.435zm-13.878-.014.004-10.831c-.007-.905-.403-1.495-1.324-1.523-.913.033-1.35.574-1.378 1.527l.004 10.83.613.006.006-10.528c.02-.428.291-.823.802-.851.633-.06.819.487.832.935v10.435zm4.157-.008.004-10.831c-.008-.905-.425-1.495-1.397-1.523-.962.033-1.423.574-1.454 1.527l.005 10.83.646.006.007-10.527c.021-.429.307-.824.846-.852.667-.06.864.487.877.935V64.18zm5.578.017-.003-10.83c.007-.905.425-1.495 1.397-1.523.962.032 1.422.574 1.454 1.527l-.005 10.83-.646.005L35.5 53.68c-.021-.428-.307-.824-.846-.852-.668-.06-.864.488-.877.936v10.435zm-4.34.046-.004-10.83c.007-.872.395-1.451 1.293-1.518h.001c.183-.013.351-.008.534-.002.87.08 1.27.67 1.277 1.529l-.004 10.83-.467.001V53.818c-.013-.448-.22-.964-.881-.957l-.46.009c-.628.019-.81.503-.823.939v10.435z" clip-rule="evenodd"/><path fill="#fff" d="M29.492 10.776H39q3.304 0 5.86 1.232 2.558 1.233 3.965 3.495 1.408 2.265 1.408 5.3 0 3.037-1.408 5.3t-3.965 3.495T39 30.83h-9.51zm9.279 15.528q2.586 0 4.137-1.461 1.58-1.46 1.58-4.04 0-2.578-1.58-4.04-1.551-1.46-4.137-1.46H35.18v11zM23.039 18.82q2.498.518 3.818 2.069 1.35 1.522 1.35 3.706a6 6 0 0 1-.976 3.304q-.948 1.523-2.929 2.47-1.953.92-4.852.92-2.124 0-4.22-.517-2.068-.517-3.59-1.465l2.068-4.281a9.3 9.3 0 0 0 2.641 1.235q1.493.432 2.929.431 1.464 0 2.325-.546.862-.545.862-1.55 0-1.954-3.073-1.954H17.01V19.05l3.589-3.878h-7.925v-4.396h14.528v3.563z"/></g></g><defs><clipPath id="a"><path fill="#fff" d="M0 0h61v61H0z"/></clipPath></defs></svg>
